X:10001
T:Jesus Christ the Apple Tree
R:March
C:Trad.
O:USA after England
Z:Paul Hardy's Xmas Tunebook 2019 (see www.paulhardy.net). Creative Commons cc by-nc-sa licenced.
M:4/4
L:1/8
Q:1/4=130
K:Gmix
"C"C2 E2 G2 G2|"G"B2 B2 "C"c3 c|"G"B2 B2 "C"c2 c2|"G"B2 "C"c2 G3 E|E2 "G"D2 "C"G2 C2|C2 C2 "G"D3 E|
"C"G2 G2 c2 c2|"F"A2 F2 "C"G3 c|"G"d2 "C"c2 c2 G2|g2 e2 "G"d2 "C"e2|G3 G c2 c2|"F"A2 F2 "C"G4|]
W:The tree of life my soul hath seen,
W:Laden with fruit and always green:
W:The trees of nature fruitless be
W:Compared with Christ the apple tree.

